packages/foundations/assets/icons/functional/images/technology/database_24_filled.svg

<svg xmlns="http://www.w3.org/2000/svg" width="20" height="20" fill="none"><path fill="#1A1C1F" fill-rule="evenodd" d="M3.567 3.052a1.9 1.9 0 0 0-.968.545 1.85 1.85 0 0 0-.533.923 1.86 1.86 0 0 0 0 .96c.096.377.244.632.533.921s.544.437.921.533C3.772 6.999 3.912 7 10 7s6.228-.001 6.48-.066c.377-.096.632-.244.921-.533s.437-.544.533-.921a2 2 0 0 0-.174-1.424c-.159-.304-.548-.682-.86-.834-.478-.235-.047-.221-6.917-.219-5.185.002-6.235.01-6.416.049m.881 1.062c.348.17.534.478.535.886 0 .207-.016.282-.093.441a.99.99 0 0 1-1.233.492 1 1 0 0 1-.491-1.477c.266-.419.821-.567 1.282-.342m-.881 3.938a1.9 1.9 0 0 0-.968.545 1.85 1.85 0 0 0-.533.923 1.86 1.86 0 0 0 0 .96c.096.377.244.632.533.921s.544.437.921.533c.252.065.392.066 6.48.066s6.228-.001 6.48-.066c.377-.096.632-.244.921-.533s.437-.544.533-.921a2 2 0 0 0-.174-1.424c-.159-.304-.548-.682-.86-.834-.478-.235-.047-.221-6.917-.219-5.185.002-6.235.01-6.416.049m.881 1.062c.348.17.534.478.535.886 0 .207-.016.282-.093.441a1 1 0 0 1-.547.492c-.735.275-1.494-.397-1.311-1.161a.993.993 0 0 1 1.416-.658m-.881 3.938a1.9 1.9 0 0 0-.968.545 1.85 1.85 0 0 0-.533.923 1.86 1.86 0 0 0 0 .96c.096.377.244.632.533.921s.544.437.921.533c.252.065.392.066 6.48.066s6.228-.001 6.48-.066c.377-.096.632-.244.921-.533s.437-.544.533-.921a2 2 0 0 0-.174-1.424c-.159-.304-.548-.682-.86-.834-.478-.235-.047-.221-6.917-.219-5.185.002-6.235.01-6.416.049m.881 1.062c.348.17.534.478.535.886 0 .207-.016.282-.093.441a1 1 0 0 1-.547.492c-.735.275-1.494-.397-1.311-1.161a.993.993 0 0 1 1.416-.658"/></svg>

<svg width="20" height="20" viewBox="0 0 20 20" fill="none" xmlns="http://www.w3.org/2000/svg"><path d="M3.567 3.052 C 3.203 3.130,2.883 3.310,2.599 3.597 C 2.310 3.888,2.162 4.145,2.066 4.520 C 1.982 4.847,1.982 5.153,2.066 5.480 C 2.162 5.857,2.310 6.112,2.599 6.401 C 2.888 6.690,3.143 6.838,3.520 6.934 C 3.772 6.999,3.912 7.000,10.000 7.000 C 16.088 7.000,16.228 6.999,16.480 6.934 C 16.857 6.838,17.112 6.690,17.401 6.401 C 17.690 6.112,17.838 5.857,17.934 5.480 C 18.054 5.010,17.992 4.498,17.760 4.056 C 17.601 3.752,17.212 3.374,16.900 3.222 C 16.422 2.987,16.853 3.001,9.983 3.003 C 4.798 3.005,3.748 3.013,3.567 3.052 M4.448 4.114 C 4.796 4.284,4.982 4.592,4.983 5.000 C 4.983 5.207,4.967 5.282,4.890 5.441 C 4.665 5.898,4.132 6.111,3.657 5.933 C 3.059 5.709,2.823 4.998,3.166 4.456 C 3.432 4.037,3.987 3.889,4.448 4.114 M3.567 8.052 C 3.203 8.130,2.883 8.310,2.599 8.597 C 2.310 8.888,2.162 9.145,2.066 9.520 C 1.982 9.847,1.982 10.153,2.066 10.480 C 2.162 10.857,2.310 11.112,2.599 11.401 C 2.888 11.690,3.143 11.838,3.520 11.934 C 3.772 11.999,3.912 12.000,10.000 12.000 C 16.088 12.000,16.228 11.999,16.480 11.934 C 16.857 11.838,17.112 11.690,17.401 11.401 C 17.690 11.112,17.838 10.857,17.934 10.480 C 18.054 10.010,17.992 9.498,17.760 9.056 C 17.601 8.752,17.212 8.374,16.900 8.222 C 16.422 7.987,16.853 8.001,9.983 8.003 C 4.798 8.005,3.748 8.013,3.567 8.052 M4.448 9.114 C 4.796 9.284,4.982 9.592,4.983 10.000 C 4.983 10.207,4.967 10.282,4.890 10.441 C 4.777 10.670,4.586 10.842,4.343 10.933 C 3.608 11.208,2.849 10.536,3.032 9.772 C 3.183 9.145,3.863 8.828,4.448 9.114 M3.567 13.052 C 3.203 13.130,2.883 13.310,2.599 13.597 C 2.310 13.888,2.162 14.145,2.066 14.520 C 1.982 14.847,1.982 15.153,2.066 15.480 C 2.162 15.857,2.310 16.112,2.599 16.401 C 2.888 16.690,3.143 16.838,3.520 16.934 C 3.772 16.999,3.912 17.000,10.000 17.000 C 16.088 17.000,16.228 16.999,16.480 16.934 C 16.857 16.838,17.112 16.690,17.401 16.401 C 17.690 16.112,17.838 15.857,17.934 15.480 C 18.054 15.010,17.992 14.498,17.760 14.056 C 17.601 13.752,17.212 13.374,16.900 13.222 C 16.422 12.987,16.853 13.001,9.983 13.003 C 4.798 13.005,3.748 13.013,3.567 13.052 M4.448 14.114 C 4.796 14.284,4.982 14.592,4.983 15.000 C 4.983 15.207,4.967 15.282,4.890 15.441 C 4.777 15.670,4.586 15.842,4.343 15.933 C 3.608 16.208,2.849 15.536,3.032 14.772 C 3.183 14.145,3.863 13.828,4.448 14.114 " fill="#1A1C1F" stroke="none" fill-rule="evenodd"></path></svg>
